Papirus/48x48/apps/deluge.svg

<svg xmlns="http://www.w3.org/2000/svg" width="48" height="48" version="1.1">
 <g style="display:none">
  <path style="fill:#99c3f9;fill-rule:evenodd" d="m 24.811452,24.996951 c -6.049549,-2.467385 -7.648816,3.683738 -6.639688,6.628769 2.195546,6.407462 11.948502,7.605174 18.062738,-3.067723 0,0 0.11598,1.28803 0.180639,1.900859 0.82106,7.781844 -5.621926,12.735535 -12.253379,12.638715 -6.631454,-0.09682 -8.657036,-2.672368 -10.611083,-5.637583 -3.170275,-4.810809 -2.429788,-11.327408 1.78168,-14.840553 4.864733,-3.959831 8.798281,-0.09585 9.479093,2.377516 z"/>
 </g>
 <g style="display:none">
  <path style="fill:#99c3f9;fill-rule:evenodd;stroke:#094491 icc-color(sRGB, 0.18046845, 0.27837034, 0.41960784);stroke-width:1.33399999" d="m 23.761543,24.179576 c -6.481311,-1.72424 -6.932125,6.183803 -5.453851,8.969604 2.408248,4.538333 12.206251,5.377175 17.706883,-3.282742 0,0 0.07651,2.193563 0.02062,2.77892 -0.534334,5.596549 -6.848986,9.789262 -11.999526,9.621298 -5.243605,-0.170999 -8.282469,-2.549917 -10.154056,-5.379263 -3.036492,-4.590373 -2.048612,-10.811985 1.554101,-13.80496 4.248899,-3.646516 7.44994,-0.562347 8.325827,1.097143 z"/>
 </g>
 <g style="display:none">
  <path style="fill:#99c3f9;fill-rule:evenodd;stroke:#094491 icc-color(sRGB, 0.18046845, 0.27837034, 0.41960784);stroke-width:2" d="m 23.507553,23.925586 c -6.495438,-1.064032 -6.790118,6.421446 -5.149063,9.579179 2.304561,4.434459 10.903063,6.282759 17.3005,-2.825561 0,0 -0.02509,1.990372 -0.08098,2.575729 -0.534334,5.596549 -6.391805,8.925697 -11.542345,8.757733 -5.243605,-0.170999 -8.247979,-2.119778 -10.001662,-5.023677 -2.772156,-4.590373 -2.467304,-9.592836 0.487345,-12.585811 3.100966,-3.879425 7.831125,-2.714919 8.986201,-0.477592 z"/>
 </g>
 <g style="display:none">
  <path style="fill:url(#radialGradient5878);fill-rule:evenodd" d="m 23.55546,23.805666 c -6.490966,-1.345852 -7.700279,4.84717 -6.759909,8.059555 1.100923,3.760845 4.033145,7.507508 11.754513,5.50458 -3.268904,5.846892 -11.255492,4.570412 -13.940353,0.387138 -2.563055,-3.993493 -2.992402,-9.05746 -1.115519,-11.776277 4.049097,-6.655711 9.485026,-4.029293 10.061268,-2.174996 z"/>
 </g>
 <path style="opacity:0.2;fill-rule:evenodd" d="M 22.716113,5.0505713 11.145707,21.640832 C 7.1659519,27.346463 7.2101178,33.509998 9.891883,38.165315 12.573648,42.820632 17.850788,46 24.004029,46 30.15707,46 35.431191,42.820658 38.110493,38.165315 40.789794,33.509973 40.832351,27.346068 36.856669,21.637277 L 25.282868,5.018222 C 24.283515,3.6665713 23.828957,3.6438351 22.716113,5.0505713 Z"/>
 <path style="fill:#225394;fill-rule:evenodd" d="M 22.716113,4.0505723 11.145707,20.640833 c -3.9797551,5.705631 -3.9355892,11.869166 -1.253824,16.524483 2.681765,4.655317 7.958905,7.834685 14.112146,7.834685 6.153041,0 11.427162,-3.179342 14.106464,-7.834685 2.679301,-4.655342 2.721858,-10.819247 -1.253824,-16.528038 L 25.282868,4.018223 C 24.283515,2.6665723 23.828957,2.6438361 22.716113,4.0505723 Z"/>
 <path style="opacity:0.2;fill-rule:evenodd" d="m 24.009766,8.498506 -9.216797,14.09375 c 2.138257,-1.926897 4.969745,-2.829416 7.658203,-2.441406 1.237539,0.178607 2.444815,0.628943 3.537109,1.376953 2.402887,1.646218 1.286904,5.405953 -1.625,5.474609 -0.0074,8.27e-4 -0.01595,0.003 -0.02344,0.0039 A 4.5,4.5 0 0 0 20,31.500459 a 4.5,4.5 0 0 0 3.980469,4.466797 c 0.677995,0.133221 1.443302,0.08394 2.398437,-0.07031 1.978271,-0.331982 4.856229,-1.200257 6.404297,-2.517578 3.892306,-3.090022 3.180612,-6.524002 0.841797,-10.152344 z"/>
 <path style="fill:#358eff;fill-rule:evenodd" d="M 24.009766,7.4980469 14.792969,21.591797 c 2.138257,-1.926897 4.969745,-2.829416 7.658203,-2.441406 1.237539,0.178607 2.444815,0.628943 3.537109,1.376953 2.402887,1.646218 1.286904,5.405953 -1.625,5.474609 -0.0074,8.27e-4 -0.01595,0.003 -0.02344,0.0039 A 4.5,4.5 0 0 0 20,30.5 a 4.5,4.5 0 0 0 3.980469,4.466797 c 0.677995,0.133221 1.443302,0.08394 2.398437,-0.07031 1.978271,-0.331982 4.856229,-1.200257 6.404297,-2.517578 3.892306,-3.090022 3.180612,-6.524002 0.841797,-10.152344 z"/>
 <path style="opacity:0.2;fill-rule:evenodd" d="m 21.330078,23.006318 c -2.274622,-0.102127 -4.618741,1.161438 -6.011719,3.671875 -2.02615,3.651542 -1.771141,8.025416 1.148438,11.158204 4.24304,4.552895 10.489482,3.708867 13.533203,0.521484 -2.037087,0.621629 -3.862462,0.87837 -5.486328,0.716797 a 7.5,7.5 0 0 1 -0.01367,0 7.5,7.5 0 0 1 -7.5,-7.5 7.5,7.5 0 0 1 6.335938,-7.404297 c 0.314504,-0.08927 0.63292,-0.154213 0.957031,-0.166016 -0.908885,-0.622409 -1.928972,-0.951625 -2.962891,-0.998047 z"/>
 <path style="fill:#c3dcfc;fill-rule:evenodd" d="m 21.330078,22.005859 c -2.274622,-0.102127 -4.618741,1.161438 -6.011719,3.671875 -2.02615,3.651542 -1.771141,8.025416 1.148438,11.158204 4.24304,4.552895 10.489482,3.708867 13.533203,0.521484 -2.037087,0.621629 -3.862462,0.87837 -5.486328,0.716797 a 7.5,7.5 0 0 1 -0.01367,0 7.5,7.5 0 0 1 -7.5,-7.5 7.5,7.5 0 0 1 6.335938,-7.404297 c 0.314504,-0.08927 0.63292,-0.154213 0.957031,-0.166016 -0.908885,-0.622409 -1.928972,-0.951625 -2.962891,-0.998047 z"/>
 <path style="opacity:0.2;fill:#ffffff;fill-rule:evenodd" d="M 24.009766,7.4980469 14.792969,21.591797 c 0.404006,-0.364071 0.839249,-0.67766 1.287109,-0.966797 L 24.009766,8.4980469 33.625,23.226562 c 1.033036,1.60261 1.747031,3.165806 1.888672,4.679688 0.153278,-1.821215 -0.62661,-3.721776 -1.888672,-5.679688 z m 3.242187,15.9746091 c -0.216751,1.317969 -1.274278,2.491233 -2.888672,2.529297 -0.0074,8.27e-4 -0.01595,0.003 -0.02344,0.0039 A 4.5,4.5 0 0 0 20,30.5 a 4.5,4.5 0 0 0 0.03125,0.503906 4.5,4.5 0 0 1 4.308594,-3.998047 c 0.0075,-9e-4 0.01604,-0.0031 0.02344,-0.0039 2.01796,-0.04758 3.169137,-1.868279 2.888672,-3.529297 z"/>
 <path style="opacity:0.2;fill:#ffffff;fill-rule:evenodd" d="m 21.330078,22.005859 c -2.274622,-0.102127 -4.618741,1.161438 -6.011719,3.671875 -0.948068,1.708617 -1.388939,3.574667 -1.298828,5.398438 0.08581,-1.498767 0.523532,-3.001192 1.298828,-4.398438 1.392978,-2.510437 3.737097,-3.774002 6.011719,-3.671875 0.503661,0.02261 1.004394,0.115406 1.490234,0.273438 a 7.5,7.5 0 0 1 0.515626,-0.109375 c 0.314504,-0.08927 0.63292,-0.154213 0.957031,-0.166016 -0.908885,-0.622409 -1.928972,-0.951625 -2.962891,-0.998047 z m -4.308594,9.121094 A 7.5,7.5 0 0 0 17,31.574219 a 7.5,7.5 0 0 0 7.5,7.5 7.5,7.5 0 0 0 0.01367,0 c 1.088548,0.108309 2.276106,0.01326 3.548828,-0.238281 0.72926,-0.405114 1.386983,-0.902015 1.9375,-1.478516 -2.037087,0.621629 -3.862462,0.87837 -5.486328,0.716797 a 7.5,7.5 0 0 1 -0.01367,0 7.5,7.5 0 0 1 -7.478516,-6.947266 z"/>
 <path style="opacity:0.1;fill:#ffffff;fill-rule:evenodd" d="m 24.042969,3 c -0.377664,0.0012 -0.76975,0.3474131 -1.326172,1.0507812 L 11.146484,20.640625 C 8.848609,23.935006 7.8973609,27.38033 8.015625,30.601562 8.1103237,27.673474 9.084882,24.59627 11.146484,21.640625 L 22.716797,5.0507812 C 23.829641,3.6440451 24.28385,3.6659274 25.283203,5.0175781 L 36.857422,21.636719 c 2.059492,2.957282 3.031986,6.036275 3.126953,8.964843 0.117756,-3.221667 -0.83143,-6.668638 -3.126953,-9.964843 L 25.283203,4.0175781 C 24.783527,3.3417528 24.420633,2.9987984 24.042969,3 Z"/>
 <g style="display:none">
  <path style="fill:#99c3f9;fill-rule:evenodd" d="m 21.55277,22.974939 c -5.188765,1.005551 -6.173294,6.973638 -4.694095,10.155871 2.191227,4.714034 8.449957,8.07696 17.664862,0.691234 -5.828901,10.827975 -14.873199,7.043001 -17.313798,4.977307 -1.97159,-1.66873 -4.164846,-4.855384 -4.11832,-8.341257 0.09522,-7.134172 6.604293,-9.266569 8.461351,-7.483155 z"/>
 </g>
 <g style="display:none">
  <path style="opacity:0.68800001;fill:url(#radialGradient4375);fill-rule:evenodd" d="m 23.956644,1.939572 -11.98159,18.384686 c -3.9618093,5.166305 -3.6931007,11.439356 -2.4054307,15.8855 5.3079527,10.817522 14.5668877,9.659123 14.5668877,9.659123 0,0 6.868403,-0.005 11.475831,-5.120874 2.283123,-2.535051 5.325726,-9.801674 2.662706,-16.234991 -0.49634,-1.028711 -3.75284,-6.551522 -4.429455,-7.554788 z"/>
 </g>
</svg>

<svg xmlns="http://www.w3.org/2000/svg" width="48" height="48" version="1.1">
 <path style="opacity:0.2" d="M 22.716,5.0506 11.146,21.641 C 7.166,27.346 7.2101,33.51 9.8919,38.165 12.574,42.821 17.851,46 24.004,46 30.157,46 35.431,42.821 38.11,38.165 40.79,33.51 40.832,27.346 36.857,21.637 L 25.283,5.0182 C 24.284,3.6666 23.829,3.6438 22.716,5.0506 Z"/>
 <path style="fill:#225394" d="M 22.716,4.0506 11.146,20.641 C 7.166,26.346 7.2101,32.51 9.8919,37.165 12.574,41.821 17.851,45 24.004,45 30.157,45 35.431,41.821 38.11,37.165 40.79,32.51 40.832,26.346 36.857,20.637 L 25.283,4.0182 C 24.284,2.6666 23.829,2.6438 22.716,4.0506 Z"/>
 <path style="opacity:0.2" d="M 24.01,8.4985 14.793,22.592 C 16.931,20.665 19.763,19.763 22.451,20.151 23.689,20.329 24.896,20.78 25.988,21.528 28.391,23.174 27.275,26.934 24.363,27.002 24.356,27.003 24.347,27.005 24.34,27.006 A 4.5,4.5 0 0 0 20,31.5 4.5,4.5 0 0 0 23.98,35.967 C 24.658,36.1 25.424,36.051 26.379,35.897 28.357,35.565 31.235,34.697 32.783,33.379 36.676,30.289 35.964,26.855 33.625,23.227 Z"/>
 <path style="fill:#358eff" d="M 24.01,7.498 14.793,21.592 C 16.931,19.665 19.763,18.762 22.451,19.15 23.689,19.329 24.896,19.779 25.988,20.527 28.391,22.174 27.275,25.933 24.363,26.002 24.356,26.003 24.347,26.005 24.34,26.006 A 4.5,4.5 0 0 0 20,30.5 4.5,4.5 0 0 0 23.98,34.967 C 24.658,35.1 25.424,35.051 26.379,34.896 28.357,34.565 31.235,33.696 32.783,32.379 36.676,29.289 35.964,25.855 33.625,22.227 Z"/>
 <path style="opacity:0.2" d="M 21.33,23.006 C 19.055,22.904 16.711,24.168 15.318,26.678 13.292,30.33 13.547,34.704 16.467,37.836 20.71,42.389 26.956,41.545 30,38.358 27.963,38.98 26.138,39.236 24.514,39.075 A 7.5,7.5 0 0 1 24.5,39.075 7.5,7.5 0 0 1 17,31.575 7.5,7.5 0 0 1 23.336,24.17 C 23.65,24.081 23.969,24.016 24.293,24.004 23.384,23.382 22.364,23.053 21.33,23.006 Z"/>
 <path style="fill:#c3dcfc" d="M 21.33,22.006 C 19.055,21.904 16.711,23.167 15.318,25.678 13.292,29.329 13.547,33.703 16.467,36.836 20.71,41.389 26.956,40.545 30,37.357 27.963,37.979 26.138,38.236 24.514,38.074 A 7.5,7.5 0 0 1 24.5,38.074 7.5,7.5 0 0 1 17,30.574 7.5,7.5 0 0 1 23.336,23.17 C 23.65,23.081 23.969,23.016 24.293,23.004 23.384,22.381 22.364,22.052 21.33,22.006 Z"/>
 <path style="opacity:0.2;fill:#ffffff" d="M 24.01,7.498 14.793,21.592 C 15.197,21.228 15.632,20.914 16.08,20.625 L 24.01,8.498 33.625,23.227 C 34.658,24.829 35.372,26.392 35.514,27.906 35.667,26.085 34.887,24.184 33.625,22.227 Z M 27.252,23.473 C 27.035,24.791 25.978,25.964 24.363,26.002 24.356,26.003 24.347,26.005 24.34,26.006 A 4.5,4.5 0 0 0 20,30.5 4.5,4.5 0 0 0 20.031,31.004 4.5,4.5 0 0 1 24.34,27.006 C 24.347,27.005 24.356,27.003 24.363,27.002 26.381,26.954 27.532,25.134 27.252,23.473 Z"/>
 <path style="opacity:0.2;fill:#ffffff" d="M 21.33,22.006 C 19.055,21.904 16.711,23.167 15.318,25.678 14.37,27.386 13.929,29.252 14.02,31.076 14.105,29.577 14.543,28.075 15.318,26.678 16.711,24.167 19.055,22.904 21.33,23.006 21.834,23.028 22.334,23.121 22.82,23.279 A 7.5,7.5 0 0 1 23.336,23.17 C 23.65,23.081 23.969,23.016 24.293,23.004 23.384,22.381 22.364,22.052 21.33,22.006 Z M 17.021,31.127 A 7.5,7.5 0 0 0 17,31.574 7.5,7.5 0 0 0 24.5,39.074 7.5,7.5 0 0 0 24.514,39.074 C 25.602,39.183 26.79,39.087 28.062,38.836 28.792,38.431 29.449,37.934 30,37.357 27.963,37.979 26.138,38.236 24.514,38.074 A 7.5,7.5 0 0 1 24.5,38.074 7.5,7.5 0 0 1 17.021,31.127 Z"/>
 <path style="opacity:0.1;fill:#ffffff" d="M 24.043,3 C 23.665,3.0012 23.273,3.3474 22.717,4.0508 L 11.146,20.641 C 8.8486,23.935 7.8974,27.38 8.0156,30.602 8.1103,27.673 9.0849,24.596 11.146,21.641 L 22.717,5.0508 C 23.83,3.644 24.284,3.6659 25.283,5.0176 L 36.857,21.637 C 38.917,24.594 39.889,27.673 39.984,30.602 40.102,27.38 39.153,23.933 36.857,20.637 L 25.283,4.0176 C 24.784,3.3418 24.421,2.9988 24.043,3 Z"/>
</svg>
